!!!!SEGMENT: pl-gd--ee-1638--006-019_marenzio-luca--il-quinto-libro-de-madrigalia-a-cinque-voci-io-son-il-piu-costante.krn
!!!cenid: 15xx:901
!!!COM: Marenzio, Luca
!!!COM-rismID: pe30003955
!!!CDT: ~1553-1599/08/22
!!!CNT: Italian
!!!GTL: Il Quinto libro de madrigalia a cinque voci
!!!OTL: Io son il piu Costante
!!!OMV: 019
!!!PDT: 1585
!!!AGN:
!!!SMS-siglum: PL-GD
!!!SMS-shelfmark: Ee 1638
!!!SMS-variant:
!!!SMS-altvar:
!!!SMS-shelfwork: 006-019 G
!!!NIFC-rismSourceID: 1001202747
!!!NIFC-rismChildID: 990039296
!!!NIFC-islandoraID: pl-gd:57883
!!!URL-pdf-islandora: https://repozytorium.nifc.pl/islandora/object/pl-gd%3A57883/datastream/PDF/view
!!!URL-scan: https://polish.musicsources.pl/pl/lokalizacje/galeria/klocki-introligatorskie/655 @EN{Scan on Polish Music Sources Website} @PL{Skany w portalu Dziedzictwo Muzyki Polskiej w otwartym dostępie}
!!!IIIF:
!!!ONB-nifc:
!!!AIN: 1 alto 1 bass 1 soprn 1 tenor 1 vox
!!!key: C
**kern	**text	**kern	**text	**kern	**text	**kern	**text	**kern	**text
*part5	*part5	*part4	*part4	*part3	*part3	*part2	*part2	*part1	*part1
*staff5	*staff5	*staff4	*staff4	*staff3	*staff3	*staff2	*staff2	*staff1	*staff1
*I"BASSO	*	*I"TENORE	*	*I"QVINTO	*	*I"ALTO	*	*I"CANTO	*
*I'B	*	*I'T	*	*I'V	*	*I'A	*	*I'S	*
*ICvox	*	*ICvox	*	*ICvox	*	*ICvox	*	*ICvox	*
*Ibass	*	*Itenor	*	*Ivox	*	*Ialto	*	*Isoprn	*
*clefF3	*	*clefC3	*	*clefC3	*	*clefC2	*	*clefG2	*
*k[b-]	*	*k[b-]	*	*k[b-]	*	*k[b-]	*	*k[b-]	*
*C:	*	*C:	*	*C:	*	*C:	*	*C:	*
*M2/2	*	*M2/2	*	*M2/2	*	*M2/2	*	*M2/2	*
*met(C|)	*	*met(C|)	*	*met(C|)	*	*met(C|)	*	*met(C|)	*
=1-	=1-	=1-	=1-	=1-	=1-	=1-	=1-	=1-	=1-
!LO:TX:a:t=Seconda parte	!	!LO:TX:a:t=Seconda parte	!	!	!	!LO:TX:a:t=Seconda parte	!	!LO:TX:a:t=Seconda parte	!
!LO:TX:t=P:problem:podwójnie zapisany znak przykluczowy, kolejno: BB- B-	!	!	!	!LO:TX:a:t=Seconda parte	!	!	!	!	!
!	!	!	!	!	!	!LO:TX:t=P:problem:podwójnie zapisany znak przykluczowy, kolejno: B- b-	!	!	!
1c	Io	2r	.	1e	IO	1g	IO	1cc	IO
.	.	2c/	Io	.	.	.	.	.	.
=2-	=2-	=2-	=2-	=2-	=2-	=2-	=2-	=2-	=2-
2F/	ſon	2.c/	ſon'	2f\	ſon	2a\	ſon'	2cc\	ſon'
2A\	il	.	.	2e\	il	2a\	il	2cc\	il
.	.	4A/	il	.	.	.	.	.	.
=3-	=3-	=3-	=3-	=3-	=3-	=3-	=3-	=3-	=3-
!	!	!	!	!	!	!LO:N:acc=#	!	!	!
2G\	piu	2.d\	piu	2.g\	piu	2.bn\	piu	2.dd\	piu
2G\	coſ-	.	.	.	.	.	.	.	.
.	.	4d\	coſ-	4g\	co-	4b\	coſ-	4dd\	co-
=4-	=4-	=4-	=4-	=4-	=4-	=4-	=4-	=4-	=4-
1C	-tan-	1c	-tan-	1g	-ſtan-	1cc	-tan-	1ee	-ſtan-
=5-	=5-	=5-	=5-	=5-	=5-	=5-	=5-	=5-	=5-
1C	-te	1c	-te	1g	-te	1cc	-te	1ee	-te
=6-	=6-	=6-	=6-	=6-	=6-	=6-	=6-	=6-	=6-
1c	D' o-	1r	.	2r	.	2r	.	2r	.
.	.	.	.	2g\	D' o-	2cc\	D' o-	2ee\	D' o-
=7-	=7-	=7-	=7-	=7-	=7-	=7-	=7-	=7-	=7-
2c\	-gni	00r	.	2.g\	-gni	2cc\	-gni	2ee\	-gni
2c\	fe-	.	.	.	.	2g\	fe-	2ee\	fe-
.	.	.	.	4c/	fe-	.	.	.	.
=8-	=8-	=8-	=8-	=8-	=8-	=8-	=8-	=8-	=8-
2B-\	-del	.	.	2d\	-del	2g\	-del	2dd\	-del
2A\	A-	.	.	2e\	A-	2a\	A-	2cc\	A-
=9-	=9-	=9-	=9-	=9-	=9-	=9-	=9-	=9-	=9-
!	!	!	!	!	!	!LO:N:acc=#	!	!	!
1G	-man-	.	.	1g	-man-	1bn	-man-	1dd	-man-
=10-	=10-	=10-	=10-	=10-	=10-	=10-	=10-	=10-	=10-
!LO:SIC:v:t=custos G	!	!	!	!LO:SIC:v:t=custos g	!	!	!	!LO:SIC:v:t=custos dd	!
1G	-te	.	.	1g	-te	1b-	-te	1dd	-te
!LO:LB:g=original	!	!	!	!LO:LB:g=original	!	!	!	!LO:LB:g=original	!
=11-	=11-	=11-	=11-	=11-	=11-	=11-	=11-	=11-	=11-
4G\	Ne-	00r	.	4g\	Ne	4b-y\	Ne	4dd\	Ne-
!	!	!	!	!	!	!LO:SIC:v:t=custos b-	!	!	!
4G\	-tua	.	.	4g\	tua	4b-\	tua	4dd\	-tua
!	!	!	!	!	!	!LO:LB:g=original	!	!	!
1G\	fer-	.	.	1g\	fer-	1b-\	fer-	1dd\	fer-
=12-	=12-	=12-	=12-	=12-	=12-	=12-	=12-	=12-	=12-
4G\	-ma	.	.	4g\	-ma	4b-\	-ma	4dd\	-ma
4c\	du-	.	.	4g\	du-	4cc\	du-	4ee\	du-
=13-	=13-	=13-	=13-	=13-	=13-	=13-	=13-	=13-	=13-
2B-\	-re-	.	.	2d\	-re-	2f\	-re-	2ff\	-re-
2B-\	-zza	.	.	2d\	-zza	2f\	-zza	2ff\	-zza
=14-	=14-	=14-	=14-	=14-	=14-	=14-	=14-	=14-	=14-
2B-\	Il	.	.	2f\	Il	2b-\	Il	2dd\	Il
2B-\	fal-	.	.	2f\	fal-	2b-\	ſal-	2dd\	ſal-
=15-	=15-	=15-	=15-	=15-	=15-	=15-	=15-	=15-	=15-
4B-\	-do	00r	.	4f\	-do	4b-\	-do	4dd\	-do
2B-\	pẽ-	.	.	2f\	pen-	2b-\	pẽ-	2dd\	pen-
4B-\	-ſier	.	.	4f\	-ſier	4b-\	-ſier	4dd\	-fier
=16-	=16-	=16-	=16-	=16-	=16-	=16-	=16-	=16-	=16-
2.B-\	mio	.	.	2.d\	mio	2.b-\	mio	2.ff\	mio
4A\	ri-	.	.	4a\	ro-	4cc\	ri-	4ff\	ro-
=17-	=17-	=17-	=17-	=17-	=17-	=17-	=17-	=17-	=17-
4B-\	-moue-	.	.	4d\	-moue	4dd\	-moue	4ff\	-mouè
4c\	-o	.	.	4g\	o	4cc\	o	4ee\	o
!	!	!	!	!	!	!LO:N:acc=#	!	!	!
1G\	ſpe-	.	.	1g\	ſpe-	1bn\	ſpe-	1dd\	ſpe-
=18-	=18-	=18-	=18-	=18-	=18-	=18-	=18-	=18-	=18-
2G\	-zza	.	.	2g\	-zza	2b-yX\	-zza	2dd\	-zza
=19-	=19-	=19-	=19-	=19-	=19-	=19-	=19-	=19-	=19-
!LO:SIC:v:t=custos F	!	!	!	!LO:SIC:v:t=custos f	!	!	!	!LO:SIC:v:t=custos cc	!
2E/	Ne	00r	.	2g\	Ne	2cc\	Ne	2ee\	Ne
!LO:LB:g=original	!	!	!	!LO:LB:g=original	!	!	!	!LO:LB:g=original	!
4.F/	la	.	.	4.f\	la	4.a\	la	4.cc\	la
8E/	tua	.	.	8g\	tua	8g\	tua	8cc\	tua
=20-	=20-	=20-	=20-	=20-	=20-	=20-	=20-	=20-	=20-
4F/	cru-	.	.	4f\	cru-	4a\	cru-	4cc\	cru-
4A\	-da	.	.	4e\	-da	4cc\	-da	4cc\	-da
!	!	!	!	!	!	!LO:SIC:v:t=custos cc	!	!	!
!	!	!	!	!	!	!LO:N:acc=#	!	!	!
2G\	vo-	.	.	2g\	vo-	2bn\	vo-	2dd\	vo-
!	!	!	!	!	!	!LO:LB:g=original	!	!	!
=21-	=21-	=21-	=21-	=21-	=21-	=21-	=21-	=21-	=21-
2C/	-glia	.	.	2g\	-glia	2cc\	-glia	2cc\	-glia
2c\	Di	.	.	2e\	Di	2g\	Di	4r	.
.	.	.	.	.	.	.	.	4ee\	Di
=22-	=22-	=22-	=22-	=22-	=22-	=22-	=22-	=22-	=22-
4c\	più	.	.	4e\	più	4g\	più	4ee\	piu
4B-\	ſegui-	.	.	4d\	ſe-	4b-y\	ſe-	4ff\	ſe-
4A\	-rt'	.	.	4c/	-guirt'	4cc\	-guir-	4ff\	-gui-
4G\	ogn'-	.	.	4B-/	ogn'-	4g\	-t' ogn'-	4ee\	-rt' o-
=23-	=23-	=23-	=23-	=23-	=23-	=23-	=23-	=23-	=23-
4.F/	-hor	0r	.	4A/	-hor	4.a\	-hor	4ff\	-gn(o)' hor
.	.	.	.	4f\	me-	.	.	4cc\	me-
8E/	me-	.	.	.	.	8g\	me-	.	.
4F/	-no	.	.	4f\	-no	4a\	-no	4cc\	-no
4A\	m'	.	.	4e\	m'	2cc\	m' in-	4cc\	m' i-
=24-	=24-	=24-	=24-	=24-	=24-	=24-	=24-	=24-	=24-
1G	inuo-	.	.	1g	inuo-	.	.	1dd	-nuo-
!	!	!	!	!	!	!LO:N:acc=#	!	!	!
.	.	.	.	.	.	8bn\	.	.	.
.	.	.	.	.	.	8a\	.	.	.
!	!	!	!	!	!	!LO:N:acc=#	!	!	!
.	.	.	.	.	.	2bn\	-uo-	.	.
=25-	=25-	=25-	=25-	=25-	=25-	=25-	=25-	=25-	=25-
1C	-glia	1r	.	1e	-glia	1cc	-glia	1cc	-glia
=26-	=26-	=26-	=26-	=26-	=26-	=26-	=26-	=26-	=26-
1c	Io	2r	.	2r	.	2r	.	2r	.
.	.	2e\	Io	2c/	Io	2g\	Io	2cc\	Io
=27-	=27-	=27-	=27-	=27-	=27-	=27-	=27-	=27-	=27-
!LO:SIC:v:t=custos A	!	!	!	!	!	!	!	!LO:SIC:v:t=custos cc	!
2F/	che	2f\	che	2.c/	che	2a\	che	2cc\	che
!LO:LB:g=original	!	!LO:SIC:v:t=custos g	!	!	!	!	!	!LO:LB:g=original	!
2A\	mo-	2e\	mo'-	.	.	2a\	mo-	2cc\	mo-
!	!	!	!	!LO:SIC:v:t=custos d	!	!	!	!	!
.	.	.	.	4A/	mo-	.	.	.	.
!	!	!LO:LB:g=original	!	!LO:LB:g=original	!	!	!	!	!
=28-	=28-	=28-	=28-	=28-	=28-	=28-	=28-	=28-	=28-
!	!	!	!	!	!	!LO:N:acc=#	!	!	!
2A\	-rir	2.g\	-rir	2.d\	-rir	2.bn\	-rir	2.dd\	-rir
2G\	mi	.	.	.	.	.	.	.	.
!	!	!	!	!	!	!LO:SIC:v:t=custos cc	!	!	!
!	!	!	!	!	!	!LO:N:acc=#	!	!	!
.	.	4g\	mi	4d\	mi	4bn\	mi	4dd\	mi
!	!	!	!	!	!	!LO:LB:g=original	!	!	!
=29-	=29-	=29-	=29-	=29-	=29-	=29-	=29-	=29-	=29-
1C	ſen-	1g	ſen-	1c	ſen-	1cc	ſen-	1ee	ſen-
=30-	=30-	=30-	=30-	=30-	=30-	=30-	=30-	=30-	=30-
1C	-to	1g	-to	1c	-to	1cc	-to	1ee	-to
=31-	=31-	=31-	=31-	=31-	=31-	=31-	=31-	=31-	=31-
1c	Di	2r	.	0r	.	2r	.	2r	.
.	.	2g\	Di	.	.	2cc\	Di	2ee\	Di
=32-	=32-	=32-	=32-	=32-	=32-	=32-	=32-	=32-	=32-
2c\	null'	2.g\	null'	.	.	2cc\	null'	2ee\	null'
2c\	al-	.	.	.	.	2g\	al-	2ee\	al-
.	.	4c/	al-	.	.	.	.	.	.
=33-	=33-	=33-	=33-	=33-	=33-	=33-	=33-	=33-	=33-
2B-\	-tro	2d\	-tro	00r	.	2g\	-tro	2dd\	-tro
2A\	pa-	2e\	pa-	.	.	2a\	pa-	2cc\	pa-
=34-	=34-	=34-	=34-	=34-	=34-	=34-	=34-	=34-	=34-
!	!	!	!	!	!	!LO:N:acc=#	!	!	!
1G	-uen-	1g	-uen-	.	.	1bn	-uen-	1dd	-uen-
=35-	=35-	=35-	=35-	=35-	=35-	=35-	=35-	=35-	=35-
1G	-to	1g	-to	.	.	1b-y	-to	1dd	-to
=36-	=36-	=36-	=36-	=36-	=36-	=36-	=36-	=36-	=36-
!	!	!	!	!	!	!LO:N:acc=#	!	!	!
2G\	Che	2g\	Che	.	.	2bn\	Che	2dd\	Che
2G\	priu-	2g\	priu-	.	.	2b-yX\	priu-	2dd\	priu-
=37-	=37-	=37-	=37-	=37-	=37-	=37-	=37-	=37-	=37-
4G\	-o	4g\	-o	00r	.	4b-\	-o	4dd\	-o
2G\	reſ-	2g\	reſ-	.	.	2b-\	re-	2dd\	reſ-
4c\	-tar	4g\	-tar	.	.	4cc\	-ſtar	4ee\	-tar
=38-	=38-	=38-	=38-	=38-	=38-	=38-	=38-	=38-	=38-
2B-\	mo-	2d\	mor-	.	.	2f\	mor-	2ff\	mor-
!LO:SIC:v:t=custos B	!	!	!	!	!	!	!	!LO:SIC:v:t=custos dd	!
2B-\	-rto	2d\	-to	.	.	2f\	-to	2ff\	-to
!LO:LB:g=original	!	!	!	!	!	!	!	!LO:LB:g=original	!
=39-	=39-	=39-	=39-	=39-	=39-	=39-	=39-	=39-	=39-
!	!	!LO:SIC:v:t=custos f	!	!	!	!	!	!	!
2B-\	Di	2f\	Di	.	.	2b-\	Di	2dd\	Di
!	!	!LO:LB:g=original	!	!	!	!LO:SIC:v:t=custos b	!	!	!
2B-\	quel	2f\	quel	.	.	2b-\	quel	2dd\	quel
!	!	!	!	!	!	!LO:LB:g=original	!	!	!
=40-	=40-	=40-	=40-	=40-	=40-	=40-	=40-	=40-	=40-
4B-\	ſoa-	4f\	ſoa-	.	.	4b-\	ſoa-	4dd\	ſoa-
2B-\	-u-	2f\	-u-	.	.	2b-\	-u-	2dd\	-u-
4B-\	-e	4f\	-e	.	.	4b-\	-e	4dd\	-e
=41-	=41-	=41-	=41-	=41-	=41-	=41-	=41-	=41-	=41-
2.B-\	mio	2.d\	mio	00r	.	2.b-\	m' o	2.ff\	mio
4A\	dol-	4a\	dol-	.	.	4cc\	dol-	4ff\	dol-
=42-	=42-	=42-	=42-	=42-	=42-	=42-	=42-	=42-	=42-
4B-\	-ce	4d\	-ce	.	.	4dd\	-ce	4ff\	-ce
4c\	con-	4g\	con-	.	.	4cc\	con-	4ee\	con-
!	!	!	!	!	!	!LO:N:acc=#	!	!	!
1G\	-for-	1g\	-for-	.	.	1bn\	-for-	1dd\	-for-
=43-	=43-	=43-	=43-	=43-	=43-	=43-	=43-	=43-	=43-
2G\	-to	2g\	-to	.	.	2b-yX\	-to	2dd\	-to
=44-	=44-	=44-	=44-	=44-	=44-	=44-	=44-	=44-	=44-
2E/	Che	2g\	Che	.	.	2cc\	Che	2ee\	Che
4.F/	da	4.f\	da	.	.	4.a\	da	4.cc\	da
8E/	tuoi	8g\	tuoi	.	.	8g\	tuoi	8cc\	tuoi
=45-	=45-	=45-	=45-	=45-	=45-	=45-	=45-	=45-	=45-
4F/	chia-	4f\	chia-	00r	.	4a\	chia-	4cc\	chia-
4A\	-ri	4e\	-ri	.	.	4cc\	-ri	4cc\	-ri
!	!	!	!	!	!	!LO:N:acc=#	!	!	!
2G\	lu-	2g\	lu-	.	.	2bn\	lu-	2dd\	lu-
=46-	=46-	=46-	=46-	=46-	=46-	=46-	=46-	=46-	=46-
2C/	-mi	2g\	-mi	.	.	2cc\	-mi	2cc\	-mi
!LO:SIC:v:t=custos C	!	!	!	!	!	!	!	!	!
2c\	Que-	2e\	Que-	.	.	2g\	Que-	4r	.
!	!	!	!	!	!	!	!	!LO:SIC:v:t=custos ee	!
.	.	.	.	.	.	.	.	4ee\	Que
!LO:LB:g=original	!	!	!	!	!	!	!	!LO:LB:g=original	!
=47-	=47-	=47-	=47-	=47-	=47-	=47-	=47-	=47-	=47-
4c\	-ſti	4e\	-ſti	.	.	4g\	-ſti	4ee\	ſti
!	!	!LO:SIC:v:t=custos c	!	!	!	!LO:SIC:v:t=custos cc	!	!	!
4B-\	miei	4d\	miei	.	.	4b-y\	miei	4ff\	miei
!	!	!LO:LB:g=original	!	!	!	!LO:LB:g=original	!	!	!
4A\	ſo-	4c/	ſo-	.	.	4cc\	ſo-	4ff\	ſo-
4G\	-glion	4B-/	-glion	.	.	4g\	-glion	4ee\	-glion
=48-	=48-	=48-	=48-	=48-	=48-	=48-	=48-	=48-	=48-
4.F/	trar	4A/	trar	.	.	4.a\	trar	4ff\	trar
.	.	4f\	on-	.	.	.	.	4cc\	on-
8E/	on-	.	.	.	.	8g\	on-	.	.
4F/	-do-	4f\	-do-	.	.	4a\	-do-	4cc\	-do-
4A\	-ſi	4e\	-ſi	.	.	2cc\	-ſi	4cc\	-ſi
=49-	=49-	=49-	=49-	=49-	=49-	=49-	=49-	=49-	=49-
1G	fiu-	1g	fiu-	0r	.	.	.	1dd	fiu-
!	!	!	!	!	!	!LO:N:acc=#	!	!	!
.	.	.	.	.	.	8bn\	.	.	.
.	.	.	.	.	.	8a\	.	.	.
!	!	!	!	!	!	!LO:N:acc=#	!	!	!
.	.	.	.	.	.	2bn\	fiu-	.	.
=50-	=50-	=50-	=50-	=50-	=50-	=50-	=50-	=50-	=50-
1C	-mi	1e	-mi	.	.	1cc	-mi	1cc	-mi
=51-	=51-	=51-	=51-	=51-	=51-	=51-	=51-	=51-	=51-
1c	Che	0r	.	1e	Che	2r	.	2r	.
.	.	.	.	.	.	2g\	Che	2cc\	Che
=52-	=52-	=52-	=52-	=52-	=52-	=52-	=52-	=52-	=52-
2c\	ſe	.	.	2e\	ſe	2g\	ſe	2cc\	ſe
2A\	per	.	.	2e\	pur	2.a\	pur	2cc\	pur
=53-	=53-	=53-	=53-	=53-	=53-	=53-	=53-	=53-	=53-
2d\	cio	00r	.	2f\	ciò	.	.	2a/	ciò
.	.	.	.	.	.	2f\	ciò	.	.
!	!	!	!	!	!	!	!	!LO:N:acc=#	!
2d\	non	.	.	2f\	non	.	.	2bn/	non
.	.	.	.	.	.	4d/	non	.	.
=54-	=54-	=54-	=54-	=54-	=54-	=54-	=54-	=54-	=54-
1c	fo-	.	.	1e	fo-	1g	fo-	1cc	fo-
=55-	=55-	=55-	=55-	=55-	=55-	=55-	=55-	=55-	=55-
1C	-ra	.	.	1e	-ra	1g	-ra	1cc	-ra
=56-	=56-	=56-	=56-	=56-	=56-	=56-	=56-	=56-	=56-
1c	Queſ-	.	.	1e	Queſ-	2r	.	2r	.
.	.	.	.	.	.	2g\	que-	2cc\	Que-
=57-	=57-	=57-	=57-	=57-	=57-	=57-	=57-	=57-	=57-
!LO:SIC:v:t=custos B	!	!	!	!	!	!	!	!LO:SIC:v:t=custos dd	!
2c\	-t' e	00r	.	2e\	-t'e	2a\	-ſt' e	2cc\	-ſt' è
!LO:LB:g=original	!	!	!	!	!	!LO:SIC:v:t=custos cc	!	!LO:LB:g=original	!
2B-\	quel	.	.	2d\	quel	2b-y\	quel	2dd\	quel
!	!	!	!	!	!	!LO:LB:g=original	!	!	!
=58-	=58-	=58-	=58-	=58-	=58-	=58-	=58-	=58-	=58-
2.A\	che	.	.	2.c/	che	2.cc\	che	2ee\	che
.	.	.	.	.	.	.	.	2ff#X\	m' a-
4A\	m' a-	.	.	4c/	m'	4cc\	m' a-	.	.
=59-	=59-	=59-	=59-	=59-	=59-	=59-	=59-	=59-	=59-
!	!	!	!	!LO:SIC:v:t=custos d	!	!LO:N:acc=#	!	!	!
1G	-cco-	.	.	1d	acco-	1bn	-cco-	1gg	-cco-
!	!	!	!	!LO:LB:g=original	!	!	!	!	!
=60-	=60-	=60-	=60-	=60-	=60-	=60-	=60-	=60-	=60-
!	!	!	!	!	!	!LO:N:acc=#	!	!	!
1G	-ra	.	.	1d	-ra	1bn	-ra	1dd	-ra
=61-	=61-	=61-	=61-	=61-	=61-	=61-	=61-	=61-	=61-
2G\	Per	00r	.	2g\	Per	2b-y\	Per	2dd\	Per
2.G\	che	.	.	2.g\	che	2.b-\	che	2.dd\	che
=62-	=62-	=62-	=62-	=62-	=62-	=62-	=62-	=62-	=62-
4G\	dou-	.	.	4d\	dou-	4b-\	dou-	4gg\	dou-
4.A\	-rei	.	.	4.a\	-rei	4.cc\	-rei	4.ee\	-rei
8F/	fu-	.	.	8a\	fu-	8cc\	fu-	8ffny\	fu-
=63-	=63-	=63-	=63-	=63-	=63-	=63-	=63-	=63-	=63-
!	!	!	!	!	!	!LO:N:acc=#	!	!	!
2G\	-ggi-	.	.	2g\	-ggi-	2bn\	-ggi-	2dd\	-ggi-
2G\	-re	.	.	2g\	-re	2b-yX\	-re	2dd\	-re
=64-	=64-	=64-	=64-	=64-	=64-	=64-	=64-	=64-	=64-
4G\	Di	.	.	4g\	Di	4b-\	Di	4dd\	Di
4c\	far	.	.	4g\	far	4cc\	far	4ee\	far
2B-\	ſa-	.	.	2d\	ſa-	2f\	ſa-	2ff\	ſa-
=65-	=65-	=65-	=65-	=65-	=65-	=65-	=65-	=65-	=65-
4B-\	-tia	00r	.	4d\	-tia	4f\	-tia	4ff\	-tia
4c\	tua|	.	.	4g\	tu-	4cc\	tua	4ee\	tua
1F\	vo-	.	.	1f\	-a	1a\	vo-	1cc\	vo-
=66-	=66-	=66-	=66-	=66-	=66-	=66-	=66-	=66-	=66-
.	.	.	.	.	vo-	.	.	.	.
!LO:SIC:v:t=custos E	!	!	!	!	!	!	!	!LO:SIC:v:t=custos ee	!
2D/	-glia	.	.	2a\	-glia	2dd\	-glia	2ff\	-glia
!LO:LB:g=original	!	!	!	!	!	!	!	!LO:LB:g=original	!
=67-	=67-	=67-	=67-	=67-	=67-	=67-	=67-	=67-	=67-
4.E/	col	.	.	4g\	col	4cc\	col	4ee\	col
!	!	!	!	!	!	!LO:SIC:v:t=custos b	!	!	!
.	.	.	.	4g\	mo-	4cc\	mo-	4ee\	mo-
8F/	mo-	.	.	.	.	.	.	.	.
!	!	!	!	!	!	!LO:LB:g=original	!	!	!
!	!	!	!	!	!	!LO:N:acc=#	!	!	!
2G\	-ri-	.	.	2g\	-ri-	2bn\	-ri-	2dd\	-ri-
=68-	=68-	=68-	=68-	=68-	=68-	=68-	=68-	=68-	=68-
1C	-re	.	.	1g	-re	1cc	-re	1cc	-re
=69-	=69-	=69-	=69-	=69-	=69-	=69-	=69-	=69-	=69-
!	!	!	!	!LO:SIC:v:t=custos d	!	!LO:N:acc=#	!	!	!
2G\	Per	2g\	Per	2d\	Per	2bn\	Per	2dd\	Per
!	!	!	!	!LO:LB:g=original	!	!	!	!	!
2.G\	che	2.g\	che	2d\	che	2.b-yX\	che	2.dd\	che
=70-	=70-	=70-	=70-	=70-	=70-	=70-	=70-	=70-	=70-
.	.	.	.	2d\	dou-	.	.	.	.
4G\	dou-	4e\	dou-	.	.	4b-\	dou-	4gg\	dou-
4.A\	-rei	4.a\	-rei	4.c/	-rei	4.cc\	-rei	4.ee\	-rei
8F/	fu-	8a\	fu-	8A/	fu-	8cc\	fu-	8ff\	fu-
=71-	=71-	=71-	=71-	=71-	=71-	=71-	=71-	=71-	=71-
!	!	!	!	!	!	!LO:N:acc=#	!	!	!
2G\	-ggi-	2g\	-ggi-	2d\	-ggi-	2bn\	-ggi-	2dd\	-ggi-
2G\	-re	2g\	-re	2d\	-re	2b-yX\	-re	2dd\	-re
=72-	=72-	=72-	=72-	=72-	=72-	=72-	=72-	=72-	=72-
4G\	Di	4g\	Di	4d\	Di	4b-\	Di	4dd\	Di
!	!	!LO:SIC:v:t=custos d	!	!	!	!	!	!	!
4c\	far	4g\	far	4c\	far	4cc\	far	4ee\	far
!	!	!LO:LB:g=original	!	!	!	!	!	!	!
2B-\	ſa-	2d\	ſa-	2f\	ſa-	2dd\	ſa-	2ff\	fa-
=73-	=73-	=73-	=73-	=73-	=73-	=73-	=73-	=73-	=73-
4B-\	-tia	4d\	-tia	4f\	-tia	4dd\	-tia	4ff\	-tia
4c\	tua	4g\	tua	4c/	tua	4cc\	tua	4ee\	tua
1F\	vo-	1f\	vo-	1c\	vo-	1a\	vo-	1cc\	vo-
=74-	=74-	=74-	=74-	=74-	=74-	=74-	=74-	=74-	=74-
2D/	-glia	2a\	-glia	2d\	-glia	2dd\	-glia	2ff\	-glia
=75-	=75-	=75-	=75-	=75-	=75-	=75-	=75-	=75-	=75-
2.E/	col-	2g\	col	2G/	col	4cc\	col	8ee\	col
.	.	.	.	.	.	.	.	8dd\	.
.	.	.	.	.	.	4g\	mo-	8ee\	.
.	.	.	.	.	.	.	.	8ff\	.
.	.	2g\	mo-	2G/	mo-	2.cc\	-ri-	2.gg\	.
4F/	-mo-	.	.	.	.	.	.	.	.
=76-	=76-	=76-	=76-	=76-	=76-	=76-	=76-	=76-	=76-
1G	-ri-	1g	-ri-	1d	-ri-	.	.	.	.
.	.	.	.	.	.	8b-\	.	4dd\	mo-
.	.	.	.	.	.	8a\	.	.	.
!	!	!	!	!	!	!LO:N:acc=#	!	!	!
.	.	.	.	.	.	2bn\	.	2dd\	-ri-
=77-	=77-	=77-	=77-	=77-	=77-	=77-	=77-	=77-	=77-
00C	-re.	00g	-re.	00c/	-re.-	00cc	-re.	00ee	-re.
==	==	==	==	==	==	==	==	==	==
*-	*-	*-	*-	*-	*-	*-	*-	*-	*-
!!!system-decoration: [(s1s2,s3,s4,s5)]
!!!ENC: Berenika Jozajtis
!!!END: 2022-06-11
!!!ENC: Natalia Wrzos
!!!END: 2022-07-20
!!!YEC: Copyright 2022 Narodowy Instytut Fryderyka Chopina (https://polishscores.org)
!!!YEM: License CC-BY-4.0 (https://creativecommons.org/licenses/by/4.0)
